X:1
T:Partition sans titre
C:Compositeur / Arrangeur
L:1/8
M:4/4
I:linebreak $
K:D
V:1 treble nm="Violon" snm="Vln."
V:1
 ABc |"D" dAFD"G" GBAG |"D" FDFD"G" GBAG |"D" FDFD"G" GDGD |"D" FDFD"A" EABc |"D" dAFD"G" GBAG | %6
"D" FDFD"G" GBAG |"D" FGAB"A" cdef |1 gecA"D" d :|2 gecA"D" d2 cd |:"A" ecAc efge |"D" fdAd fagf | %12
"A" ecAc efgf | edcB A4 |"G" BGDG BdcB |"D" AFDF AFDF |"G" BdcB"D" AGFD |1"A" EDCE"D" D2 cd :|2 %18
"A" EDCE"D" D |] %19
